X: 6083
T: Captain Byng
R: reel
M: 4/4
K: Gmajor
d|g3d BGG2|eaag fdef|g3d BGGB|cAdB G2Gd|
g3d BGG2|eaag fdcA|(3Bcd ef g3e|dBAB G2G||
c|BGdG BGGB|cAeA cAAc|BGdG BGGB|cAdB G2GA|
BGdG BGGB|cAeA cAAc|(3Bcd ef gage|dBAB G2G||

